images/br.svg

<?xml version="1.0" encoding="UTF-8" standalone="no"?><!DOCTYPE svg PUBLIC "-//W3C//DTD SVG 1.1//EN" "http://www.w3.org/Graphics/SVG/1.1/DTD/svg11.dtd"><svg width="100%" height="100%" viewBox="0 0 57 57" version="1.1" xmlns="http://www.w3.org/2000/svg" xmlns:xlink="http://www.w3.org/1999/xlink" xml:space="preserve" xmlns:serif="http://www.serif.com/" style="fill-rule:evenodd;clip-rule:evenodd;"><circle id="cir_1" cx="28.5" cy="28.5" r="24.5" style="fill:#fafafa;"/><circle id="cir_2" cx="28.5" cy="28.5" r="22.05" style="fill:#fafafa;stroke:#000;stroke-width:2px;"/><path d="M25.993,12.142c-0.223,0.341 -0.223,0.43 0.059,1.336c0.164,0.534 0.342,1.32 0.386,1.751c0.06,0.43 0.119,0.935 0.164,1.098c0.044,0.297 -0.03,0.341 -1.099,0.49c-0.623,0.089 -1.914,0.237 -2.849,0.326c-2.745,0.252 -3.146,0.505 -2.241,1.38c0.549,0.52 1.737,0.683 3.799,0.52c0.816,-0.06 1.707,-0.119 1.974,-0.134l0.475,0l0,2.33l-0.698,0.089c-2.151,0.282 -4.392,0.43 -5.297,0.356c-0.579,-0.059 -1.143,-0.03 -1.306,0.059c-0.386,0.208 -0.342,0.906 0.103,1.321c0.535,0.505 0.772,1.395 1.188,4.452c0.415,3.131 0.549,3.666 0.979,4.215c0.371,0.475 1.083,0.534 1.306,0.104c0.134,-0.223 0.401,-0.297 1.677,-0.371c0.846,-0.06 1.647,-0.134 1.796,-0.178c0.222,-0.075 0.252,0.044 0.252,1.024l0,1.113l-0.994,0.089c-0.564,0.059 -2.538,0.267 -4.423,0.474c-1.87,0.193 -4.214,0.401 -5.194,0.446c-2.062,0.104 -2.686,0.252 -2.834,0.682c-0.119,0.386 0.43,0.95 1.632,1.662c1.024,0.609 1.336,0.638 2.879,0.253c1.469,-0.371 3.295,-0.683 5.817,-0.98c1.099,-0.119 2.256,-0.267 2.553,-0.297l0.534,-0.074l0.06,4.274c0.044,3.977 0.059,4.289 0.356,4.779c0.178,0.311 0.415,0.519 0.578,0.519c0.342,0 0.891,-0.787 1.113,-1.543c0.268,-0.906 0.594,-4.452 0.594,-6.352c0,-1.588 0.03,-1.81 0.267,-1.885c0.742,-0.207 6.975,-0.415 10.047,-0.341c3.74,0.104 4.111,0.045 4.2,-0.653c0.059,-0.564 -0.609,-1.291 -1.677,-1.781c-1.247,-0.593 -1.573,-0.638 -3.503,-0.371c-1.409,0.193 -8.414,0.831 -9.126,0.831c-0.163,0 -0.208,-0.237 -0.208,-1.024c0,-1.202 -0.133,-1.113 2.152,-1.276c1.35,-0.104 1.35,-0.104 1.528,0.282c0.268,0.579 0.757,0.757 1.41,0.49c0.282,-0.134 0.638,-0.401 0.787,-0.623c0.133,-0.208 0.727,-1.989 1.32,-3.948c0.683,-2.226 1.217,-3.754 1.47,-4.111c0.519,-0.756 0.489,-1.098 -0.164,-1.676c-0.623,-0.535 -2.493,-1.455 -3.235,-1.573c-0.282,-0.045 -1.32,0.133 -2.656,0.46c-1.202,0.296 -2.256,0.534 -2.33,0.534c-0.074,0 -0.134,-0.49 -0.134,-1.084l0,-1.068l2.33,-0.356c2.642,-0.401 4.126,-0.757 4.482,-1.113c0.386,-0.401 -0.044,-0.98 -1.024,-1.395c-0.95,-0.386 -1.499,-0.371 -3.487,0.074c-2.39,0.549 -2.301,0.549 -2.301,0.059c0,-0.237 0.104,-0.949 0.223,-1.558c0.119,-0.623 0.178,-1.217 0.134,-1.335c-0.119,-0.297 -1.099,-0.787 -1.959,-0.965c-1.217,-0.252 -1.618,-0.208 -1.885,0.193Zm7.999,11.189c-0.015,0.594 -0.045,1.113 -0.074,1.143c-0.03,0.015 -0.49,-0.045 -1.009,-0.163c-0.817,-0.163 -1.143,-0.163 -2.152,0.015c-0.668,0.118 -1.262,0.222 -1.336,0.222c-0.133,0 -0.059,-1.721 0.104,-1.87c0.148,-0.148 2.775,-0.475 3.665,-0.46l0.817,0.03l-0.015,1.083Zm-7.361,0.727l-0.044,1.01l-1.855,0.237c-1.024,0.134 -1.87,0.237 -1.885,0.223c-0.015,-0.015 -0.074,-0.505 -0.134,-1.084l-0.103,-1.038l1.543,-0.149c0.846,-0.074 1.766,-0.163 2.033,-0.163l0.49,-0.03l-0.045,0.994Zm7.005,2.301c0,0.282 -0.549,2.493 -0.638,2.582c-0.045,0.044 -0.342,0.015 -0.653,-0.074c-0.401,-0.104 -0.95,-0.119 -1.692,-0.015c-0.609,0.074 -1.143,0.148 -1.202,0.148c-0.074,0 -0.119,-0.504 -0.119,-1.113c0,-1.024 0.03,-1.113 0.341,-1.187c0.268,-0.059 3.132,-0.445 3.785,-0.505c0.089,0 0.178,0.075 0.178,0.164Zm-6.975,1.884l0,1.158l-0.994,0.089c-0.564,0.059 -1.321,0.104 -1.692,0.104l-0.683,0l-0.104,-0.787c-0.178,-1.484 -0.193,-1.439 0.772,-1.454c0.683,-0.015 1.929,-0.134 2.597,-0.267c0.059,0 0.104,0.504 0.104,1.157Z" style="fill-rule:nonzero;"/></svg>

<?xml version="1.0" encoding="UTF-8" standalone="no"?>
<!DOCTYPE svg PUBLIC "-//W3C//DTD SVG 1.1//EN" "http://www.w3.org/Graphics/SVG/1.1/DTD/svg11.dtd">
<svg width="100%" height="100%" viewBox="0 0 57 57" version="1.1" xmlns="http://www.w3.org/2000/svg" xmlns:xlink="http://www.w3.org/1999/xlink" xml:space="preserve" xmlns:serif="http://www.serif.com/" style="fill-rule:evenodd;clip-rule:evenodd;">
    <g id="cir_1" transform="matrix(1.0198,0,0,1.03035,-0.0791987,-0.121408)">
        <circle cx="28.5" cy="28.5" r="24.5" style="fill:rgb(119,119,119);"/>
    </g>
    <circle id="cir_11" serif:id="cir_1" cx="28.5" cy="28.5" r="24.5" style="fill:rgb(250,250,250);"/>
    <circle id="cir_2" cx="28.5" cy="28.5" r="22.05" style="fill:rgb(250,250,250);stroke:black;stroke-width:2px;"/>
    <path d="M25.993,12.142C25.77,12.483 25.77,12.572 26.052,13.478C26.216,14.012 26.394,14.798 26.438,15.229C26.498,15.659 26.557,16.164 26.602,16.327C26.646,16.624 26.572,16.668 25.503,16.817C24.88,16.906 23.589,17.054 22.654,17.143C19.909,17.395 19.508,17.648 20.413,18.523C20.962,19.043 22.15,19.206 24.212,19.043C25.028,18.983 25.919,18.924 26.186,18.909L26.661,18.909L26.661,21.239L25.963,21.328C23.812,21.61 21.571,21.758 20.666,21.684C20.087,21.625 19.523,21.654 19.36,21.743C18.974,21.951 19.018,22.649 19.463,23.064C19.998,23.569 20.235,24.459 20.651,27.516C21.066,30.647 21.2,31.182 21.63,31.731C22.001,32.206 22.713,32.265 22.936,31.835C23.07,31.612 23.337,31.538 24.613,31.464C25.459,31.404 26.26,31.33 26.409,31.286C26.631,31.211 26.661,31.33 26.661,32.31L26.661,33.423L25.667,33.512C25.103,33.571 23.129,33.779 21.244,33.986C19.374,34.179 17.03,34.387 16.05,34.432C13.988,34.536 13.364,34.684 13.216,35.114C13.097,35.5 13.646,36.064 14.848,36.776C15.872,37.385 16.184,37.414 17.727,37.029C19.196,36.658 21.022,36.346 23.544,36.049C24.643,35.93 25.8,35.782 26.097,35.752L26.631,35.678L26.691,39.952C26.735,43.929 26.75,44.241 27.047,44.731C27.225,45.042 27.462,45.25 27.625,45.25C27.967,45.25 28.516,44.463 28.738,43.707C29.006,42.801 29.332,39.255 29.332,37.355C29.332,35.767 29.362,35.545 29.599,35.47C30.341,35.263 36.574,35.055 39.646,35.129C43.386,35.233 43.757,35.174 43.846,34.476C43.905,33.912 43.237,33.185 42.169,32.695C40.922,32.102 40.596,32.057 38.666,32.324C37.257,32.517 30.252,33.155 29.54,33.155C29.377,33.155 29.332,32.918 29.332,32.131C29.332,30.929 29.199,31.018 31.484,30.855C32.834,30.751 32.834,30.751 33.012,31.137C33.28,31.716 33.769,31.894 34.422,31.627C34.704,31.493 35.06,31.226 35.209,31.004C35.342,30.796 35.936,29.015 36.529,27.056C37.212,24.83 37.746,23.302 37.999,22.945C38.518,22.189 38.488,21.847 37.835,21.269C37.212,20.734 35.342,19.814 34.6,19.696C34.318,19.651 33.28,19.829 31.944,20.156C30.742,20.452 29.688,20.69 29.614,20.69C29.54,20.69 29.48,20.2 29.48,19.606L29.48,18.538L31.81,18.182C34.452,17.781 35.936,17.425 36.292,17.069C36.678,16.668 36.248,16.089 35.268,15.674C34.318,15.288 33.769,15.303 31.781,15.748C29.391,16.297 29.48,16.297 29.48,15.807C29.48,15.57 29.584,14.858 29.703,14.249C29.822,13.626 29.881,13.032 29.837,12.914C29.718,12.617 28.738,12.127 27.878,11.949C26.661,11.697 26.26,11.741 25.993,12.142ZM33.992,23.331C33.977,23.925 33.947,24.444 33.918,24.474C33.888,24.489 33.428,24.429 32.909,24.311C32.092,24.148 31.766,24.148 30.757,24.326C30.089,24.444 29.495,24.548 29.421,24.548C29.288,24.548 29.362,22.827 29.525,22.678C29.673,22.53 32.3,22.203 33.19,22.218L34.007,22.248L33.992,23.331ZM26.631,24.058L26.587,25.068L24.732,25.305C23.708,25.439 22.862,25.542 22.847,25.528C22.832,25.513 22.773,25.023 22.713,24.444L22.61,23.406L24.153,23.257C24.999,23.183 25.919,23.094 26.186,23.094L26.676,23.064L26.631,24.058ZM33.636,26.359C33.636,26.641 33.087,28.852 32.998,28.941C32.953,28.985 32.656,28.956 32.345,28.867C31.944,28.763 31.395,28.748 30.653,28.852C30.044,28.926 29.51,29 29.451,29C29.377,29 29.332,28.496 29.332,27.887C29.332,26.863 29.362,26.774 29.673,26.7C29.941,26.641 32.805,26.255 33.458,26.195C33.547,26.195 33.636,26.27 33.636,26.359ZM26.661,28.243L26.661,29.401L25.667,29.49C25.103,29.549 24.346,29.594 23.975,29.594L23.292,29.594L23.188,28.807C23.01,27.323 22.995,27.368 23.96,27.353C24.643,27.338 25.889,27.219 26.557,27.086C26.616,27.086 26.661,27.59 26.661,28.243Z" style="fill-rule:nonzero;"/>
</svg>
